X: 165
T: No_75_Love-charm_Song.krn
N: Derived from No_75_Love-charm_Song.krn
%%abc-version 2.0
%%abcx-abcm2ps-target-version 5.9.1 (29 Sep 2008)
%%abc-creator hum2abc beta
%%abcx-conversion-date 2019/03/15 08:29:13
%%humdrum-veritas 1393745774
%%humdrum-veritas-data 2641890234
%%linebreak <none>
%%barnumbers 0
L: 1/16
M: 3/4
K: F clef=treble
[K:clef=treble][M:3/4]c3c c3c c2AG | 
(3:2:4c2c2ccc4c3c ||  
[M:2/4]A3A (3G2A2G2 | 
F4D2FF ||  
[M:3/4]F2FFF4F3F ||  
[M:2/4]C3C C3C | 
C4A,2CC ||  
[M:3/4]C2CCC4C3C ||  
[M:2/4]C3C C3A, | 
A,4A,4 | 
A,4A,4 | 
A,4A,3c | 
F3F C3C | 
C4A,2CC ||  
[M:3/4]C2CCC4C3C ||  
[M:2/4]C3C C3A, | 
A,4A,4 | 
A,4A,4 |]  



